modules/hawcons-filled/icons/icon-41-moonrise.svg

<?xml version="1.0" encoding="UTF-8" standalone="no"?>
<svg width="32px" height="32px" viewBox="0 0 32 32" version="1.1" xmlns="http://www.w3.org/2000/svg" xmlns:xlink="http://www.w3.org/1999/xlink" xmlns:sketch="http://www.bohemiancoding.com/sketch/ns">
    <!-- Generator: Sketch 3.0.3 (7891) - http://www.bohemiancoding.com/sketch -->
    <title>icon 41 moonrise</title>
    <desc>Created with Sketch.</desc>
    <defs></defs>
    <g id="Page-1" stroke="none" stroke-width="1" fill="none" fill-rule="evenodd" sketch:type="MSPage">
        <g id="icon-41-moonrise" sketch:type="MSArtboardGroup" fill="#929292">
            <path d="M19.3388454,19.4332961 C20.0577335,18.7325197 20.5854789,17.8365876 20.8364888,16.8310925 C20.9242079,16.4797073 20.9781305,16.1149417 20.9946037,15.7404486 C20.5269611,15.9050627 20.0239372,15.9946037 19.5,15.9946037 C17.0147185,15.9946037 15,13.9798852 15,11.4946037 C15,10.9706664 15.089541,10.4676426 15.2541551,10 C14.879662,10.0164731 14.5148964,10.0703957 14.1635112,10.1581148 C11.7718077,10.7551751 10,12.9179753 10,15.4946037 C10,17.517593 11.0921951,19.2854863 12.7190854,20.2407839 L16.5,17 L19.3388454,19.4332961 L19.3388454,19.4332961 L19.3388454,19.4332961 Z M7.5082041,22 C7.22753073,22 7,22.2319336 7,22.5 C7,22.7761424 7.22661515,23 7.5082041,23 L13.5833333,23 L14.75,22 L16.5,20.5 L18.25,22 L19.4166667,23 L25.4917959,23 C25.7724693,23 26,22.7680664 26,22.5 C26,22.2238576 25.7733849,22 25.4917959,22 L20,22 L16.5,19 L13,22 L7.5082041,22 L7.5082041,22 Z" id="moonrise" sketch:type="MSShapeGroup"></path>
        </g>
    </g>
</svg>

<svg width="32" height="32" viewBox="0 0 32 32" xmlns="http://www.w3.org/2000/svg"><path d="M19.339 19.433a5.494 5.494 0 0 0 1.656-3.693 4.5 4.5 0 0 1-5.74-5.74 5.502 5.502 0 0 0-2.535 10.24L16.5 17l2.839 2.433zM7.509 22a.51.51 0 0 0-.509.5c0 .276.227.5.508.5h6.075l1.167-1 1.75-1.5 1.75 1.5 1.167 1h6.075a.51.51 0 0 0 .508-.5c0-.276-.227-.5-.508-.5H20l-3.5-3-3.5 3H7.508z" fill="#929292" fill-rule="evenodd"/></svg>
